images/wwd-end-to-end.svg

<svg width="65" height="65" viewBox="0 0 65 65" fill="none" xmlns="http://www.w3.org/2000/svg">
<circle cx="46.125" cy="5.0625" r="1" fill="white" fill-opacity="0.7"/>
<circle cx="49.125" cy="5.0625" r="1" fill="white" fill-opacity="0.7"/>
<circle cx="52.125" cy="5.0625" r="1" fill="white" fill-opacity="0.7"/>
<path fill-rule="evenodd" clip-rule="evenodd" d="M3 3.0625H21.0312V13.0312H21H3.01562H3V3.0625ZM3 14.0938V17.0312H21.0312V14.0938H21H3.01562H3ZM2 2.0625H3H21.0312H22.0312V3.0625V17.0312V18.0312H21.0312H16.0625V18.0625V20.2812V20.3125H18.1875V22.3125H5.90625V20.3125H8.03125V20.2812V18.0625V18.0312H3H2V17.0312V3.0625V2.0625ZM15.0625 18.0625H9.03125V20.2812H15.0625V18.0625Z" fill="white"/>
<rect x="43.5" y="2.5625" width="19.0312" height="19.3125" stroke="white"/>
<rect x="43.25" y="7.28125" width="19.5312" height="0.5" stroke="white" stroke-width="0.5"/>
<path d="M26.5935 52.3327L26.5936 52.3327L28.4979 51.8566C30.6285 53.279 33.8128 53.6675 36.5027 51.8567L38.4064 52.3327C39.8866 52.7027 40.925 54.0326 40.925 55.5584V58.7875C40.925 59.5676 40.2925 60.2 39.5125 60.2H25.4875C24.7074 60.2 24.075 59.5676 24.075 58.7875V55.5584C24.075 54.0326 25.1133 52.7027 26.5935 52.3327ZM32.5 40.8C35.3045 40.8 37.5781 43.0736 37.5781 45.8782C37.5781 48.6828 35.3045 50.9563 32.5 50.9563C29.6954 50.9563 27.4218 48.6828 27.4218 45.8782C27.4218 43.0736 29.6954 40.8 32.5 40.8Z" stroke="#7ACC00"/>
<path fill-rule="evenodd" clip-rule="evenodd" d="M28.5312 2.98438H37.5312V16.875H28.5312V2.98438ZM27.5312 17.9688V17.875V16.9688V16.875V2.98438V1.98438H28.5312H37.5312H38.5312V2.98438V16.875V16.9688V17.875V17.9688V21.2188V22.2188H37.5312H28.5312H27.5312V21.2188V17.9688ZM37.5312 17.9688V21.2188H28.5312V17.9688H37.5312Z" fill="white"/>
<circle cx="32.9688" cy="19.5625" r="1" fill="white" fill-opacity="0.7"/>
<path fill-rule="evenodd" clip-rule="evenodd" d="M15.9848 32.2188H14.9526V31.2188H15.9848V32.2188ZM19.3911 32.2188H18.3589V31.2188H19.3911V32.2188ZM22.7973 32.2188H21.7651V31.2188H22.7973V32.2188ZM26.2036 32.2188H25.1714V31.2188H26.2036V32.2188ZM29.6098 32.2188H28.5776V31.2188H29.6098V32.2188ZM36.4223 32.2188H35.3901V31.2188H36.4223V32.2188ZM39.8286 32.2188H38.7964V31.2188H39.8286V32.2188ZM43.2348 32.2188H42.2026V31.2188H43.2348V32.2188ZM46.6411 32.2188H45.6089V31.2188H46.6411V32.2188ZM50.0473 32.2188H49.0151V31.2188H50.0473V32.2188Z" fill="white"/>
<rect x="11.625" y="31.25" width="1" height="1" fill="white"/>
<rect x="11.625" y="28.5781" width="1" height="1" fill="white"/>
<rect x="11.625" y="25.9062" width="1" height="1" fill="white"/>
<rect x="31.9844" y="31.2266" width="1" height="1" fill="white"/>
<rect x="31.9844" y="28.5547" width="1" height="1" fill="white"/>
<rect x="31.9844" y="25.8828" width="1" height="1" fill="white"/>
<rect x="52.4375" y="31.2266" width="1" height="1" fill="white"/>
<rect x="52.4375" y="28.5547" width="1" height="1" fill="white"/>
<rect x="52.4375" y="25.8828" width="1" height="1" fill="white"/>
<rect x="31.9844" y="36.5703" width="1" height="1" fill="white"/>
<rect x="31.9844" y="33.8984" width="1" height="1" fill="white"/>
<rect x="31.9844" y="31.2266" width="1" height="1" fill="white"/>
</svg>

<?xml version="1.0" encoding="utf-8"?>
<!-- Generator: Adobe Illustrator 23.0.1, SVG Export Plug-In . SVG Version: 6.00 Build 0)  -->
<svg version="1.1" id="Layer_1" xmlns="http://www.w3.org/2000/svg" xmlns:xlink="http://www.w3.org/1999/xlink" x="0px" y="0px"
	 viewBox="0 0 65 65" style="enable-background:new 0 0 65 65;" xml:space="preserve">
<style type="text/css">
	.st0{fill:#FFFFFF;fill-opacity:0.7;}
	.st1{fill-rule:evenodd;clip-rule:evenodd;fill:#FFFFFF;}
	.st2{fill:none;stroke:#FFFFFF;}
	.st3{fill:none;stroke:#FFFFFF;stroke-width:0.5;}
	.st4{fill:none;stroke:#93CB40;}
	.st5{fill:#FFFFFF;}
</style>
<circle class="st0" cx="46.1" cy="5.1" r="1"/>
<circle class="st0" cx="49.1" cy="5.1" r="1"/>
<circle class="st0" cx="52.1" cy="5.1" r="1"/>
<path class="st1" d="M3,3.1h18v10h0H3h0V3.1z M3,14.1V17h18v-2.9h0H3L3,14.1z M2,2.1h1h18h1v1v14v1h-1h-5v0v2.2v0h2.1v2H5.9v-2H8v0
	v-2.2v0H3H2v-1v-14V2.1z M15.1,18.1H9v2.2h6V18.1z"/>
<rect x="43.5" y="2.6" class="st2" width="19" height="19.3"/>
<rect x="43.3" y="7.3" class="st3" width="19.5" height="0.5"/>
<path class="st4" d="M26.6,52.3L26.6,52.3l1.9-0.5c2.1,1.4,5.3,1.8,8,0l1.9,0.5c1.5,0.4,2.5,1.7,2.5,3.2v3.2c0,0.8-0.6,1.4-1.4,1.4
	h-14c-0.8,0-1.4-0.6-1.4-1.4v-3.2C24.1,54,25.1,52.7,26.6,52.3z M32.5,40.8c2.8,0,5.1,2.3,5.1,5.1S35.3,51,32.5,51
	c-2.8,0-5.1-2.3-5.1-5.1S29.7,40.8,32.5,40.8z"/>
<path class="st1" d="M28.5,3h9v13.9h-9V3z M27.5,18L27.5,18v-1v-0.1V3V2h1h9h1v1v13.9V17v0.9V18v3.3v1h-1h-9h-1v-1V18z M37.5,18v3.3
	h-9V18H37.5z"/>
<circle class="st0" cx="33" cy="19.6" r="1"/>
<path class="st1" d="M16,32.2h-1v-1h1V32.2z M19.4,32.2h-1v-1h1V32.2z M22.8,32.2h-1v-1h1V32.2z M26.2,32.2h-1v-1h1V32.2z
	 M29.6,32.2h-1v-1h1V32.2z M36.4,32.2h-1v-1h1V32.2z M39.8,32.2h-1v-1h1V32.2z M43.2,32.2h-1v-1h1V32.2z M46.6,32.2h-1v-1h1V32.2z
	 M50,32.2h-1v-1h1V32.2z"/>
<rect x="11.6" y="31.3" class="st5" width="1" height="1"/>
<rect x="11.6" y="28.6" class="st5" width="1" height="1"/>
<rect x="11.6" y="25.9" class="st5" width="1" height="1"/>
<rect x="32" y="31.2" class="st5" width="1" height="1"/>
<rect x="32" y="28.6" class="st5" width="1" height="1"/>
<rect x="32" y="25.9" class="st5" width="1" height="1"/>
<rect x="52.4" y="31.2" class="st5" width="1" height="1"/>
<rect x="52.4" y="28.6" class="st5" width="1" height="1"/>
<rect x="52.4" y="25.9" class="st5" width="1" height="1"/>
<rect x="32" y="36.6" class="st5" width="1" height="1"/>
<rect x="32" y="33.9" class="st5" width="1" height="1"/>
<rect x="32" y="31.2" class="st5" width="1" height="1"/>
</svg>
